X: 10690
T: Down The Road
R: polka
M: 2/4
K: Gmajor
GG G/A/B/G/ AG GB/c/|dB/c/ dg|ed d2|
ee d2|ee d2|ee d/B/G/A/|BA A/c/B/A/|
GG G/A/B/G/ AG GB/c/|dB/c/ dg|ed d2|
ee d2|ee d2|G/F/G/A/ BA|G2 G z||
G>E D>E|GG G/A/B/A/|GG G/A/B/G/|AF D2|
A>F D>F|AA A/B/c/B/|AA A/B/c/A/|dB G2|
B>c dB|cB AG|FD cA|F2 D2|
EE D2|EE D2|GG F/G/A/F/|G2 G2||

